X: 1
P: Funesdalingen
O: etter Harald Gullikstad
R: R\orospols
Z: John Chambers <jc@trillian.mit.edu>
N: Taught by Annar Gjelten in Boston, Oct 1995.
N: Taught by Olav Nyhus, Seattle, March 1989.
M: 3/4
L: 1/8
%%slurgraces 1
K:A
|: "A"A2 Ac A>c | e2 ae c>c | "E7"~cB/c/ dB G>B \
|1,3 "A"B>A Ac E>E :|2,4 BA "A"A4 :|
|: "D"A>f f2 f2 | "A"fe e4 | "E7"E>{B}c d2 d2 | "A"dc c4 \
|  "D"A>f f2 f2 | "A"fe e3a | "E7"g>f ed B>G | "A"{G}A2 A4 :|
